dist/assets/img/telegram.svg

<svg width="25" height="25" viewBox="0 0 25 25" fill="none" xmlns="http://www.w3.org/2000/svg">
<path d="M12.5 25C19.4036 25 25 19.4036 25 12.5C25 5.59644 19.4036 0 12.5 0C5.59644 0 0 5.59644 0 12.5C0 19.4036 5.59644 25 12.5 25Z" fill="#7AA5DA"/>
<path d="M18.7355 6.5196C19.2338 6.32517 19.7489 6.76121 19.6395 7.28474L17.4047 17.9674C17.3003 18.4682 16.7119 18.6938 16.2994 18.3908L12.9257 15.9144L11.206 17.6703C10.9038 17.9784 10.3828 17.853 10.2531 17.4422L9.01242 13.5036L5.68664 12.5213C5.24977 12.3925 5.22453 11.7847 5.64792 11.6189L18.7355 6.5196ZM17.0949 8.88997C17.2405 8.76116 17.0713 8.53391 16.9063 8.6366L9.72785 13.0886C9.60158 13.1669 9.54352 13.3209 9.5881 13.4632L10.5671 17.762C10.5864 17.8277 10.6807 17.8184 10.6891 17.7502L10.908 14.4741C10.9164 14.3933 10.9551 14.3193 11.0157 14.2654L17.0949 8.88997Z" fill="white"/>
<path d="M16.9078 8.63649C17.0728 8.5338 17.242 8.76105 17.0964 8.88986L11.0173 14.2653C10.9567 14.3192 10.9179 14.3932 10.9095 14.474L10.6906 17.7501C10.6822 17.8183 10.588 17.8276 10.5686 17.7619L9.58962 13.4631C9.54499 13.3208 9.6031 13.1668 9.72937 13.0885L16.9078 8.63649Z" fill="#9EC2E5"/>
<path d="M10.6025 17.8063C10.4442 17.7499 10.3104 17.6237 10.2531 17.4418L9.01242 13.5032L5.68664 12.5209C5.24977 12.3921 5.22453 11.7844 5.64792 11.6186L18.7354 6.51931C19.057 6.39387 19.3861 6.53108 19.5486 6.78533C19.5182 6.73904 19.4821 6.69612 19.4417 6.65823L10.5629 13.9065V14.2239L10.514 14.1885L10.5629 16.1868V17.7895C10.5755 17.7954 10.5889 17.8005 10.6024 17.8047V17.8063H10.6025Z" fill="white"/>
<path d="M11.162 17.7112C11.1469 17.7238 11.1317 17.7356 11.1157 17.7465V17.7457C11.1317 17.7348 11.1469 17.7238 11.162 17.7112Z" fill="#DADDE0"/>
<path d="M11.1174 17.7461V17.7478C11.1174 17.7478 11.1174 17.7461 11.1157 17.7478C11.1157 17.7478 11.1157 17.7478 11.1174 17.7461Z" fill="#DADDE0"/>
<path d="M11.0156 17.8001C11.0501 17.7858 11.083 17.7681 11.1149 17.7471C11.083 17.7681 11.0493 17.7857 11.0156 17.8001Z" fill="#DADDE0"/>
<path d="M10.7417 17.8378C10.8158 17.8454 10.8907 17.8395 10.9639 17.8176C10.9109 17.8345 10.8562 17.842 10.8015 17.842C10.7846 17.842 10.7678 17.8412 10.7518 17.8395C10.7484 17.8396 10.7451 17.8396 10.7417 17.8378Z" fill="#DADDE0"/>
<path d="M10.8016 17.8417C10.7848 17.8417 10.7679 17.8408 10.752 17.8391C10.7679 17.8408 10.7848 17.8417 10.8016 17.8417Z" fill="white"/>
<path d="M10.7411 17.8381C10.7444 17.8397 10.7478 17.8397 10.7512 17.8397C10.7335 17.8389 10.7175 17.8364 10.7007 17.833C10.7141 17.8356 10.7276 17.8373 10.7411 17.8381Z" fill="white"/>
<path d="M10.7413 17.838C10.7278 17.8372 10.7144 17.8354 10.7009 17.833C10.695 17.8321 10.6892 17.8313 10.6841 17.8296C10.7026 17.833 10.7219 17.8363 10.7413 17.838Z" fill="#DADDE0"/>
<path d="M10.6206 17.8115C10.6391 17.8174 10.6577 17.8225 10.6762 17.8275C10.6686 17.8259 10.661 17.8242 10.6535 17.8225C10.6501 17.8217 10.6467 17.8208 10.6442 17.8191C10.6366 17.8174 10.6282 17.8149 10.6206 17.8115Z" fill="#DADDE0"/>
<path d="M10.6538 17.8225C10.6622 17.8244 10.6706 17.8263 10.679 17.8281C10.6706 17.8272 10.6622 17.8253 10.6538 17.8225Z" fill="white"/>
<path d="M10.6203 17.8116C10.6278 17.8149 10.6363 17.8175 10.6438 17.8191C10.6312 17.8166 10.6186 17.8124 10.606 17.8074C10.611 17.809 10.6152 17.8107 10.6203 17.8116Z" fill="white"/>
<path d="M10.6266 17.8141C10.6199 17.813 10.6142 17.8107 10.6075 17.8085C10.6064 17.8096 10.6041 17.8085 10.603 17.8074V17.8052C10.6108 17.8096 10.6187 17.8118 10.6266 17.8141Z" fill="#DADDE0"/>
<path d="M10.5635 16.187L10.603 17.8048C10.5896 17.8006 10.5761 17.7956 10.5635 17.7897V16.187Z" fill="#D1D1D1"/>
<path d="M10.5635 14.2246V16.1875L10.5146 14.1892L10.5635 14.2246Z" fill="#DADDE0"/>
<path d="M17.0964 8.88983L11.0173 14.2653C10.9567 14.3191 10.9179 14.3932 10.9095 14.474L10.691 17.7504C10.6826 17.8185 10.5884 17.8278 10.5681 17.7622L9.58962 13.4631C9.54499 13.3208 9.6031 13.1668 9.72937 13.0885L16.9078 8.63651C17.0728 8.53377 17.242 8.76107 17.0964 8.88983Z" fill="#ADBCC9"/>
</svg>

<svg width="25" height="25" fill="none" xmlns="http://www.w3.org/2000/svg"><path d="M12.5 25C19.404 25 25 19.404 25 12.5S19.404 0 12.5 0 0 5.596 0 12.5 5.596 25 12.5 25z" fill="#7AA5DA"/><path d="M18.735 6.52a.673.673 0 01.905.765l-2.235 10.682a.704.704 0 01-1.106.424l-3.373-2.477-1.72 1.756a.571.571 0 01-.953-.228l-1.24-3.938-3.326-.983a.477.477 0 01-.04-.902l13.088-5.1zm-1.64 2.37c.146-.129-.024-.356-.189-.253l-7.178 4.452a.326.326 0 00-.14.374l.98 4.299c.018.066.113.056.121-.012l.219-3.276a.324.324 0 01.108-.209l6.079-5.375z" fill="#fff"/><path d="M16.908 8.636c.165-.102.334.125.188.254l-6.079 5.375a.324.324 0 00-.107.209l-.22 3.276c-.008.068-.102.078-.121.012l-.98-4.299a.326.326 0 01.14-.374l7.179-4.453z" fill="#9EC2E5"/><path d="M10.602 17.806a.561.561 0 01-.349-.364l-1.24-3.939-3.326-.982a.477.477 0 01-.04-.902l13.088-5.1a.671.671 0 01.707.14l-8.88 7.247v.318l-.048-.036.049 1.999v1.602a.313.313 0 00.04.016v.001z" fill="#fff"/><path d="M11.162 17.711a.596.596 0 01-.046.036v-.001a.585.585 0 00.046-.035z" fill="#DADDE0"/><path d="M11.117 17.746v.002s0-.002-.001 0l.001-.002zm-.101.054zm-.274.038z" fill="#DADDE0"/><path d="M10.802 17.842zm-.061-.004z" fill="#fff"/><path d="M10.741 17.838a.348.348 0 01-.04-.005c-.006 0-.012-.002-.017-.003a.615.615 0 00.057.008zm-.121-.027z" fill="#DADDE0"/><path d="M10.654 17.823zm-.034-.011a.219.219 0 01-.014-.004l.014.004z" fill="#fff"/><path d="M10.627 17.814a.076.076 0 01-.02-.006c0 .002-.003 0-.004 0v-.003c.008.005.016.007.024.01z" fill="#DADDE0"/><path d="M10.563 16.187l.04 1.618a.319.319 0 01-.04-.015v-1.603z" fill="#D1D1D1"/><path d="M10.563 14.225v1.963l-.048-1.999.048.036z" fill="#DADDE0"/><path d="M17.096 8.89l-6.079 5.375a.324.324 0 00-.107.209l-.219 3.276c-.008.069-.103.078-.123.012l-.978-4.299a.326.326 0 01.14-.374l7.178-4.452c.165-.103.334.124.188.253z" fill="#ADBCC9"/></svg>
